(** This GCode was generated by ReplicatorG 0040 **)
(*  using Skeinforge (50)  
(*  for a Single headed Replicator 2  *)
(*  on 2014/07/16 15:13:36 (-0600) 
(**** start.gcode for Replicator 2, single head ****)


G21 (set units to mm)
G90 (set positioning to absolute)


(**** begin homing ****)
G162 X Y Z F2500 (home XY axes maximum)
G92 X0 Y0 Z0 (set current position on axes)
(**** end homing ****)

(**** end of start.gcode ****)
M73 P71 (display progress)
G1 Z-50 F2300
G1 X-250 
G1 Y-120
G4 P1000 (wait after weaving home)

G1 X-130

G1 Y-95
G1 X-250

G1 Y-70
G1 X-130

G1 Y-45
G1 X-250

G1 Y-20
G1 X-130

(** G1 Y5)
(** G1 X-250)
(******* End.gcode*******)


M73 P100 ( End  build progress )
(G0 Z150 ( Send Z axis to bottom of machine )
G1 X0 Y0 Z0 (home to absolute 0)
(*********end End.gcode*******)
